craft2/public/assets/svgicons/branches/plug-01.svg

<svg xmlns="http://www.w3.org/2000/svg" width="25" height="44" viewBox="0 0 25 44"><g stroke="#3B3735" stroke-width="2" stroke-linecap="round" stroke-linejoin="round" stroke-miterlimit="10" fill="none"><path d="M1 13v11.31c0 1.543 1.553 2.69 3.095 2.69h17.022c1.542 0 2.883-1.147 2.883-2.69v-11.31h-23z"/><path d="M9 27h7v7h-7z"/><path d="M13 34v9"/><path d="M3 13v-10.072c0-.721.625-1.928 1.346-1.928h.522c.72 0 1.132 1.207 1.132 1.928v10.072"/><path d="M19 13v-10.072c0-.721.276-1.928.997-1.928h.522c.72 0 1.481 1.207 1.481 1.928v10.072"/><path d="M10.91 23.36l.75-2.75 2.25.75.968-3.5"/></g></svg>

<?xml version="1.0" encoding="utf-8"?>
<!-- Generator: Adobe Illustrator 17.0.0, SVG Export Plug-In . SVG Version: 6.00 Build 0)  -->
<!DOCTYPE svg PUBLIC "-//W3C//DTD SVG 1.1//EN" "http://www.w3.org/Graphics/SVG/1.1/DTD/svg11.dtd">
<svg version="1.1" id="Layer_1" xmlns="http://www.w3.org/2000/svg" xmlns:xlink="http://www.w3.org/1999/xlink" x="0px" y="0px"
	 width="25px" height="44px" viewBox="0 0 25 44" enable-background="new 0 0 25 44" xml:space="preserve">
<g>
	<path fill="none" stroke="#3B3735" stroke-width="2" stroke-linecap="round" stroke-linejoin="round" stroke-miterlimit="10" d="
		M1,13v11.31C1,25.853,2.553,27,4.095,27h17.022C22.659,27,24,25.853,24,24.31V13H1z"/>
	
		<rect x="9" y="27" fill="none" stroke="#3B3735" stroke-width="2" stroke-linecap="round" stroke-linejoin="round" stroke-miterlimit="10" width="7" height="7"/>
	
		<line fill="none" stroke="#3B3735" stroke-width="2" stroke-linecap="round" stroke-linejoin="round" stroke-miterlimit="10" x1="13" y1="34" x2="13" y2="43"/>
	<path fill="none" stroke="#3B3735" stroke-width="2" stroke-linecap="round" stroke-linejoin="round" stroke-miterlimit="10" d="
		M3,13V2.928C3,2.207,3.625,1,4.346,1h0.522C5.588,1,6,2.207,6,2.928V13"/>
	<path fill="none" stroke="#3B3735" stroke-width="2" stroke-linecap="round" stroke-linejoin="round" stroke-miterlimit="10" d="
		M19,13V2.928C19,2.207,19.276,1,19.997,1h0.522C21.239,1,22,2.207,22,2.928V13"/>
	
		<polyline fill="none" stroke="#3B3735" stroke-width="2" stroke-linecap="round" stroke-linejoin="round" stroke-miterlimit="10" points="
		10.91,23.36 11.66,20.61 13.91,21.36 14.878,17.86 	"/>
</g>
</svg>
